X:4397
L:1/16
M:2/4
K:G
 (3ABc | d>BG>B d>Be>B | d>cB>c E2 z2 | c>AF>A c>Ad>A | c>BA>B D4 (3ABc | d>BG>B d>Bg>d | 
 f>e^d>e A2A>G | F>Gf>e d>cE>F | G2 g2 G2 :: Bd | g2d3/2c B<GG2 | G>AB>G A2B>A | G>AB>c d>Bd>g | 
 f>ga>f g>de>f | g2d>c B<GG2 | G>AB>c d2g2 | f>ga>f g2 :|

